X:358
T:Leaving Glen Affric
C:Finlay MacRae
D:Palomino Waltz, Phil Cunningham (1988)
Z:Nigel Gatherer
L:1/8
M:3/4
K:A
e2|A3 =GBc|A4 c2|e4 e<A|f4 a2|e4 f2|c4 e>c|B3 A c2|B4 e2|
A3 =GBc|A4 c2|e4 e<A|f4 a2|e4 f2|c4 e>c|B3 A c2|A4 :|
f2|f3 e>fa|e4 f2|f3 efa|a4 f2|f3 efa|A4 c2|c4 ec|B4 e2|
A3 =GBc|A4 c2|e4 e<A|f4 a2|e4 f2|c4 e>c|B3 A c2|A4 :|
<end>
<start>
